X:2
%
T:Lady Down's Reel
M:C|
L:1/8
R:Reel
S:MacDonald - 4th Collection of Strathspey Reels (1797)
Z:AK/Fiddler's Companion
K:C
G | c2 (cG) ECCE | FEDC B,G,G,E | c2 (cG) ECCE | FDGE C/C/C C :|
e | gagf ecce | fdec BGGB | gagf ecce | edge c/c/c ce |
gagf ecce | fdec BGGB | cGAF EFGf | ecde c/c/c c ||

